src/Resource_Files/main/format-case-lowercase.svg

<svg clip-rule="evenodd" fill-rule="evenodd" stroke-linejoin="round" stroke-miterlimit="2" viewBox="0 0 48 48" xmlns="http://www.w3.org/2000/svg"><path d="m21.011 35.478v-10.914c0-1.923-.525-3.334-1.574-4.233-1.05-.898-2.606-1.348-4.666-1.348-.928 0-1.914.12-2.959.359-1.045.24-2.007.589-2.886 1.048l1.114 2.461c.703-.332 1.435-.62 2.197-.865.762-.244 1.557-.366 2.388-.366 1.015 0 1.765.256 2.248.769s.725 1.287.725 2.322v.864l-2.798.088c-2.539.078-4.429.542-5.669 1.392-1.24.849-1.86 2.109-1.86 3.779 0 1.572.447 2.788 1.34 3.647.894.86 2.136 1.29 3.728 1.29 1.24 0 2.256-.179 3.047-.535.791-.357 1.577-1.028 2.359-2.014h.117l.688 2.256zm-9.521-2.937c-.43-.396-.645-.955-.645-1.678 0-.996.369-1.736 1.106-2.219s1.917-.754 3.538-.813l2.08-.088v1.406c0 1.26-.379 2.239-1.135 2.937-.757.699-1.761 1.048-3.011 1.048-.859 0-1.504-.198-1.933-.593zm17.768-11.141h-.146c.019-.214.049-.717.088-1.508s.058-1.387.058-1.787v-5.42h-3.442v22.793h2.578l.63-1.919h.234c1.133 1.474 2.725 2.212 4.776 2.212 2.031 0 3.618-.74 4.76-2.22 1.143-1.479 1.714-3.547 1.714-6.203 0-2.647-.564-4.702-1.692-6.167s-2.702-2.198-4.724-2.198c-2.129 0-3.74.806-4.834 2.417zm7.72 5.918c0 1.827-.315 3.223-.945 4.19s-1.555 1.45-2.776 1.45c-1.416 0-2.436-.442-3.061-1.326-.625-.883-.938-2.312-.938-4.284v-.235c.02-1.914.335-3.278.945-4.094.61-.815 1.609-1.223 2.996-1.223 2.519 0 3.779 1.841 3.779 5.522z" fill="#0ca4d5" fill-rule="nonzero"/></svg>

<?xml version="1.0" encoding="UTF-8" standalone="no"?>
<!DOCTYPE svg PUBLIC "-//W3C//DTD SVG 1.1//EN" "http://www.w3.org/Graphics/SVG/1.1/DTD/svg11.dtd">
<svg width="100%" height="100%" viewBox="0 0 48 48" version="1.1" xmlns="http://www.w3.org/2000/svg" xmlns:xlink="http://www.w3.org/1999/xlink" xml:space="preserve" xmlns:serif="http://www.serif.com/" style="fill-rule:evenodd;clip-rule:evenodd;stroke-linejoin:round;stroke-miterlimit:2;">
    <path d="M21.011,35.478L21.011,24.564C21.011,22.641 20.486,21.23 19.437,20.331C18.387,19.433 16.831,18.983 14.771,18.983C13.843,18.983 12.857,19.103 11.812,19.342C10.767,19.582 9.805,19.931 8.926,20.39L10.04,22.851C10.743,22.519 11.475,22.231 12.237,21.986C12.999,21.742 13.794,21.62 14.625,21.62C15.64,21.62 16.39,21.876 16.873,22.389C17.356,22.902 17.598,23.676 17.598,24.711L17.598,25.575L14.8,25.663C12.261,25.741 10.371,26.205 9.131,27.055C7.891,27.904 7.271,29.164 7.271,30.834C7.271,32.406 7.718,33.622 8.611,34.481C9.505,35.341 10.747,35.771 12.339,35.771C13.579,35.771 14.595,35.592 15.386,35.236C16.177,34.879 16.963,34.208 17.745,33.222L17.862,33.222L18.55,35.478L21.011,35.478ZM11.49,32.541C11.06,32.145 10.845,31.586 10.845,30.863C10.845,29.867 11.214,29.127 11.951,28.644C12.688,28.161 13.868,27.89 15.489,27.831L17.569,27.743L17.569,29.149C17.569,30.409 17.19,31.388 16.434,32.086C15.677,32.785 14.673,33.134 13.423,33.134C12.564,33.134 11.919,32.936 11.49,32.541ZM29.258,21.4L29.112,21.4C29.131,21.186 29.161,20.683 29.2,19.892C29.239,19.101 29.258,18.505 29.258,18.105L29.258,12.685L25.816,12.685L25.816,35.478L28.394,35.478L29.024,33.559L29.258,33.559C30.391,35.033 31.983,35.771 34.034,35.771C36.065,35.771 37.652,35.031 38.794,33.551C39.937,32.072 40.508,30.004 40.508,27.348C40.508,24.701 39.944,22.646 38.816,21.181C37.688,19.716 36.114,18.983 34.092,18.983C31.963,18.983 30.352,19.789 29.258,21.4ZM36.978,27.318C36.978,29.145 36.663,30.541 36.033,31.508C35.403,32.475 34.478,32.958 33.257,32.958C31.841,32.958 30.821,32.516 30.196,31.632C29.571,30.749 29.258,29.32 29.258,27.348L29.258,27.113C29.278,25.199 29.593,23.835 30.203,23.019C30.813,22.204 31.812,21.796 33.199,21.796C35.718,21.796 36.978,23.637 36.978,27.318Z" style="fill:rgb(12,164,213);fill-rule:nonzero;"/>
</svg>
